dist/assets/img/ceo/1.svg

<svg width="192" height="313" viewBox="0 0 192 313" fill="none" xmlns="http://www.w3.org/2000/svg">
<path d="M65.2513 171.763L138.789 86.5253L165.531 113.266L113.72 171.763L165.531 230.259L138.789 257L65.2513 171.763ZM-18.3147 171.763L55.2234 86.5253L81.9645 113.266L30.1536 171.763L81.9645 230.259L55.2234 257L-18.3147 171.763Z" fill="#F4F6F9"/>
<path d="M65.2513 171.763L63.737 170.456L62.6099 171.763L63.737 173.069L65.2513 171.763ZM138.789 86.5253L140.204 85.111L138.681 83.5888L137.275 85.2188L138.789 86.5253ZM165.531 113.266L167.028 114.592L168.276 113.183L166.945 111.852L165.531 113.266ZM113.72 171.763L112.222 170.437L111.048 171.763L112.222 173.089L113.72 171.763ZM165.531 230.259L166.945 231.673L168.276 230.342L167.028 228.933L165.531 230.259ZM138.789 257L137.275 258.306L138.681 259.936L140.204 258.414L138.789 257ZM-18.3147 171.763L-19.829 170.456L-20.9562 171.763L-19.829 173.069L-18.3147 171.763ZM55.2234 86.5253L56.6376 85.111L55.1154 83.5888L53.7091 85.2188L55.2234 86.5253ZM81.9645 113.266L83.4617 114.592L84.7099 113.183L83.3788 111.852L81.9645 113.266ZM30.1536 171.763L28.6564 170.437L27.4819 171.763L28.6564 173.089L30.1536 171.763ZM81.9645 230.259L83.3788 231.673L84.7099 230.342L83.4617 228.933L81.9645 230.259ZM55.2234 257L53.7091 258.306L55.1154 259.936L56.6376 258.414L55.2234 257ZM66.7656 173.069L140.304 87.8317L137.275 85.2188L63.737 170.456L66.7656 173.069ZM137.375 87.9395L164.116 114.681L166.945 111.852L140.204 85.111L137.375 87.9395ZM164.033 111.94L112.222 170.437L115.217 173.089L167.028 114.592L164.033 111.94ZM112.222 173.089L164.033 231.585L167.028 228.933L115.217 170.437L112.222 173.089ZM164.116 228.845L137.375 255.586L140.204 258.414L166.945 231.673L164.116 228.845ZM140.304 255.694L66.7656 170.456L63.737 173.069L137.275 258.306L140.304 255.694ZM-16.8004 173.069L56.7377 87.8317L53.7091 85.2188L-19.829 170.456L-16.8004 173.069ZM53.8092 87.9395L80.5503 114.681L83.3788 111.852L56.6376 85.111L53.8092 87.9395ZM80.4674 111.94L28.6564 170.437L31.6508 173.089L83.4617 114.592L80.4674 111.94ZM28.6564 173.089L80.4674 231.585L83.4617 228.933L31.6508 170.437L28.6564 173.089ZM80.5503 228.845L53.8092 255.586L56.6376 258.414L83.3788 231.673L80.5503 228.845ZM56.7377 255.694L-16.8004 170.456L-19.829 173.069L53.7091 258.306L56.7377 255.694Z" fill="white"/>
<path d="M76.2513 173.763L149.789 88.5253L176.531 115.266L124.72 173.763L176.531 232.259L149.789 259L76.2513 173.763ZM-7.31472 173.763L66.2234 88.5253L92.9645 115.266L41.1536 173.763L92.9645 232.259L66.2234 259L-7.31472 173.763Z" fill="white"/>
<path d="M76.2513 173.763L74.737 172.456L73.6099 173.763L74.737 175.069L76.2513 173.763ZM149.789 88.5253L151.204 87.111L149.681 85.5888L148.275 87.2188L149.789 88.5253ZM176.531 115.266L178.028 116.592L179.276 115.183L177.945 113.852L176.531 115.266ZM124.72 173.763L123.222 172.437L122.048 173.763L123.222 175.089L124.72 173.763ZM176.531 232.259L177.945 233.673L179.276 232.342L178.028 230.933L176.531 232.259ZM149.789 259L148.275 260.306L149.681 261.936L151.204 260.414L149.789 259ZM-7.31472 173.763L-8.82903 172.456L-9.95618 173.763L-8.82903 175.069L-7.31472 173.763ZM66.2234 88.5253L67.6376 87.111L66.1154 85.5888L64.7091 87.2188L66.2234 88.5253ZM92.9645 115.266L94.4617 116.592L95.7099 115.183L94.3788 113.852L92.9645 115.266ZM41.1536 173.763L39.6564 172.437L38.4819 173.763L39.6564 175.089L41.1536 173.763ZM92.9645 232.259L94.3788 233.673L95.7099 232.342L94.4617 230.933L92.9645 232.259ZM66.2234 259L64.7091 260.306L66.1154 261.936L67.6376 260.414L66.2234 259ZM77.7656 175.069L151.304 89.8317L148.275 87.2188L74.737 172.456L77.7656 175.069ZM148.375 89.9395L175.116 116.681L177.945 113.852L151.204 87.111L148.375 89.9395ZM175.033 113.94L123.222 172.437L126.217 175.089L178.028 116.592L175.033 113.94ZM123.222 175.089L175.033 233.585L178.028 230.933L126.217 172.437L123.222 175.089ZM175.116 230.845L148.375 257.586L151.204 260.414L177.945 233.673L175.116 230.845ZM151.304 257.694L77.7656 172.456L74.737 175.069L148.275 260.306L151.304 257.694ZM-5.8004 175.069L67.7377 89.8317L64.7091 87.2188L-8.82903 172.456L-5.8004 175.069ZM64.8092 89.9395L91.5503 116.681L94.3788 113.852L67.6376 87.111L64.8092 89.9395ZM91.4674 113.94L39.6564 172.437L42.6508 175.089L94.4617 116.592L91.4674 113.94ZM39.6564 175.089L91.4674 233.585L94.4617 230.933L42.6508 172.437L39.6564 175.089ZM91.5503 230.845L64.8092 257.586L67.6376 260.414L94.3788 233.673L91.5503 230.845ZM67.7377 257.694L-5.8004 172.456L-8.82903 175.069L64.7091 260.306L67.7377 257.694Z" fill="#F4F6F9"/>
</svg>

<svg width="192" height="313" viewBox="0 0 192 313" fill="none" xmlns="http://www.w3.org/2000/svg"><path d="M65.251 171.763l73.538-85.238 26.742 26.741-51.811 58.497 51.811 58.496L138.789 257l-73.538-85.237zm-83.566 0l73.538-85.238 26.742 26.741-51.811 58.497 51.81 58.496L55.225 257l-73.539-85.237z" fill="#F4F6F9"/><path d="M65.251 171.763l-1.514-1.307-1.127 1.307 1.127 1.306 1.514-1.306zm73.538-85.238l1.415-1.414-1.523-1.522-1.406 1.63 1.514 1.306zm26.742 26.741l1.497 1.326 1.248-1.409-1.331-1.331-1.414 1.414zm-51.811 58.497l-1.498-1.326-1.174 1.326 1.174 1.326 1.498-1.326zm51.811 58.496l1.414 1.414 1.331-1.331-1.248-1.409-1.497 1.326zM138.789 257l-1.514 1.306 1.406 1.63 1.523-1.522-1.415-1.414zm-157.104-85.237l-1.514-1.307-1.127 1.307 1.127 1.306 1.514-1.306zm73.538-85.238l1.415-1.414-1.523-1.522-1.406 1.63 1.514 1.306zm26.742 26.741l1.497 1.326 1.248-1.409-1.331-1.331-1.415 1.414zm-51.811 58.497l-1.498-1.326-1.174 1.326 1.174 1.326 1.498-1.326zm51.81 58.496l1.415 1.414 1.33-1.331-1.247-1.409-1.498 1.326zM55.225 257l-1.515 1.306 1.406 1.63 1.523-1.522L55.223 257zm11.542-83.931l73.538-85.237-3.029-2.613-73.538 85.237 3.029 2.613zm70.609-85.13l26.741 26.742 2.829-2.829-26.741-26.741-2.829 2.828zm26.658 24.001l-51.811 58.497 2.995 2.652 51.811-58.497-2.995-2.652zm-51.811 61.149l51.811 58.496 2.995-2.652-51.811-58.496-2.995 2.652zm51.894 55.756l-26.741 26.741 2.829 2.828 26.741-26.741-2.829-2.828zm-23.812 26.849l-73.538-85.238-3.029 2.613 73.538 85.237 3.029-2.612zM-16.8 173.069l73.538-85.237-3.029-2.613-73.538 85.237 3.029 2.613zm70.61-85.13l26.74 26.742 2.829-2.829-26.741-26.741-2.829 2.828zm26.657 24.001l-51.81 58.497 2.994 2.652 51.81-58.497-2.994-2.652zm-51.81 61.149l51.81 58.496 2.995-2.652-51.811-58.496-2.995 2.652zm51.893 55.756l-26.74 26.741 2.828 2.828 26.74-26.741-2.828-2.828zm-23.812 26.849L-16.8 170.456l-3.029 2.613 73.538 85.237 3.029-2.612z" fill="#fff"/><path d="M76.251 173.763l73.538-85.238 26.742 26.741-51.811 58.497 51.811 58.496L149.789 259l-73.538-85.237zm-83.566 0l73.538-85.238 26.742 26.741-51.811 58.497 51.81 58.496L66.225 259l-73.539-85.237z" fill="#fff"/><path d="M76.251 173.763l-1.514-1.307-1.127 1.307 1.127 1.306 1.514-1.306zm73.538-85.238l1.415-1.414-1.523-1.522-1.406 1.63 1.514 1.306zm26.742 26.741l1.497 1.326 1.248-1.409-1.331-1.331-1.414 1.414zm-51.811 58.497l-1.498-1.326-1.174 1.326 1.174 1.326 1.498-1.326zm51.811 58.496l1.414 1.414 1.331-1.331-1.248-1.409-1.497 1.326zM149.789 259l-1.514 1.306 1.406 1.63 1.523-1.522-1.415-1.414zM-7.315 173.763l-1.514-1.307-1.127 1.307 1.127 1.306 1.514-1.306zm73.538-85.238l1.415-1.414-1.523-1.522-1.406 1.63 1.514 1.306zm26.742 26.741l1.497 1.326 1.248-1.409-1.331-1.331-1.415 1.414zm-51.811 58.497l-1.498-1.326-1.174 1.326 1.174 1.326 1.498-1.326zm51.81 58.496l1.415 1.414 1.33-1.331-1.247-1.409-1.498 1.326zM66.225 259l-1.515 1.306 1.406 1.63 1.523-1.522L66.223 259zm11.542-83.931l73.538-85.237-3.029-2.613-73.538 85.237 3.029 2.613zm70.609-85.13l26.741 26.742 2.829-2.829-26.741-26.741-2.829 2.828zm26.658 24.001l-51.811 58.497 2.995 2.652 51.811-58.497-2.995-2.652zm-51.811 61.149l51.811 58.496 2.995-2.652-51.811-58.496-2.995 2.652zm51.894 55.756l-26.741 26.741 2.829 2.828 26.741-26.741-2.829-2.828zm-23.812 26.849l-73.538-85.238-3.029 2.613 73.538 85.237 3.029-2.612zM-5.8 175.069l73.538-85.237-3.029-2.613-73.538 85.237 3.029 2.613zm70.61-85.13l26.74 26.742 2.829-2.829-26.741-26.741-2.829 2.828zm26.657 24.001l-51.81 58.497 2.994 2.652 51.81-58.497-2.994-2.652zm-51.81 61.149l51.81 58.496 2.995-2.652-51.811-58.496-2.995 2.652zm51.893 55.756l-26.74 26.741 2.828 2.828 26.74-26.741-2.828-2.828zm-23.812 26.849L-5.8 172.456l-3.029 2.613 73.538 85.237 3.029-2.612z" fill="#F4F6F9"/></svg>
